X: 5564
T: Bus Ride, The
R: reel
M: 4/4
K: Dmajor
fg|afdA GBed|cAag fdAF|DFAD GBd^G|Acec gcfg|
afdA GBed|cAag fdAF|DFAF GBed|(3cBA(3gfed2:|
|:ef|geBG~E3F|~G3A Bcdc|~B3c~d3e|~f3g afga|
(3b=c'b(3agfe2eB|~G3A Bed=c|~B3c dcdf|gfede2:|

